X: 1
T: Engelsk fr. Mallebro
R: ganglat, march
M: 2/4
L: 1/16
K: A
"A"|: AB \
| "A"c2cc cBcd | "A"e4 c2dc | "E"B2B2 B2AB | "A"c3B A2AB \
| "A"c2cc cBcd | "A"e2a2 e3d | "A"cABc "E"B3A | "A"A6 :|
"B"|: Ac \
| "A"e2e2 "D"f2f2 | "A"e6 ed | "A"c2c2 "E"d2e2 | "A"c6 AB \
| "A"c2cc cBcd | "A"e2a2 e3d | "A"cABc "E"B3A | "A"A6 :|
